public/avatar/item0/28.svg

<svg xmlns:xlink="http://www.w3.org/1999/xlink" height="58.65" width="49.15" xmlns="http://www.w3.org/2000/svg"><use height="4.8" transform="translate(11.3 32.7)" width="25.15" xlink:href="#a"/><defs><g id="a" fill-rule="evenodd"><path d="M10.45 14.6q2.45-.05 1.7 2.35-.75 2.45-3 2.45-.95-.05-1.7-1.05-.8-.95-.55-1.8.45-1.8 3.55-1.95" fill="#fff" transform="translate(12.8 -14.6)"/><path d="M10.45 14.6q1.45-.05 1.75 1.05.3 1-.45 2.2l-1.9-3.15.6-.1" fill="red" transform="translate(12.8 -14.6)"/><path d="M6.9 16.55q.15-.6 1-1.1l1.65 3.9-.4.05q-.95-.05-1.7-1.05-.8-.95-.55-1.8" fill="#0004ff" transform="translate(12.8 -14.6)"/><path d="M-12.65 16.95q-.7-2.4 1.65-2.35 3.15.15 3.6 1.95.25.85-.55 1.8-.75 1-1.7 1.05-2.25 0-3-2.45" fill="#fff" transform="translate(12.8 -14.6)"/><path d="m-11 14.6.65.1-1.9 3.15q-.7-1.2-.4-2.2.3-1.1 1.65-1.05" fill="#0004ff" transform="translate(12.8 -14.6)"/><path d="M-7.4 16.55q.25.85-.55 1.8-.75 1-1.7 1.05l-.45-.05 1.7-3.9q.8.5 1 1.1" fill="red" transform="translate(12.8 -14.6)"/><path d="M-12.65 16.95q-.7-2.4 1.65-2.35 3.15.15 3.6 1.95.25.85-.55 1.8-.75 1-1.7 1.05-2.25 0-3-2.45" fill="#fff" transform="translate(12.8 -14.6)"/><path d="m-11 14.6.65.1-1.9 3.15q-.7-1.2-.4-2.2.3-1.1 1.65-1.05" fill="#0004ff" transform="translate(12.8 -14.6)"/><path d="M-7.4 16.55q.25.85-.55 1.8-.75 1-1.7 1.05l-.45-.05 1.7-3.9q.8.5 1 1.1" fill="red" transform="translate(12.8 -14.6)"/></g></defs></svg>

<?xml version="1.0" encoding="UTF-8" standalone="no"?>
<svg xmlns:xlink="http://www.w3.org/1999/xlink" height="58.65px" width="49.15px" xmlns="http://www.w3.org/2000/svg">
  <g transform="matrix(1.0, 0.0, 0.0, 1.0, 24.1, 18.1)">
    <use height="4.8" transform="matrix(1.0, 0.0, 0.0, 1.0, -12.8, 14.6)" width="25.15" xlink:href="#shape0"/>
  </g>
  <defs>
    <g id="shape0" transform="matrix(1.0, 0.0, 0.0, 1.0, 12.8, -14.6)">
      <path d="M10.45 14.6 Q12.9 14.55 12.15 16.95 11.4 19.4 9.15 19.4 8.2 19.35 7.45 18.35 6.65 17.4 6.9 16.55 7.35 14.75 10.45 14.6" fill="#ffffff" fill-rule="evenodd" stroke="none"/>
      <path d="M10.45 14.6 Q11.9 14.55 12.2 15.65 12.5 16.65 11.75 17.85 L9.85 14.7 10.45 14.6" fill="#ff0000" fill-rule="evenodd" stroke="none"/>
      <path d="M6.9 16.55 Q7.05 15.95 7.9 15.45 L9.55 19.35 9.15 19.4 Q8.2 19.35 7.45 18.35 6.65 17.4 6.9 16.55" fill="#0004ff" fill-rule="evenodd" stroke="none"/>
      <path d="M-12.65 16.95 Q-13.35 14.55 -11.0 14.6 -7.85 14.75 -7.4 16.55 -7.15 17.4 -7.95 18.35 -8.7 19.35 -9.65 19.4 -11.9 19.4 -12.65 16.95" fill="#ffffff" fill-rule="evenodd" stroke="none"/>
      <path d="M-11.0 14.6 L-10.35 14.7 -12.25 17.85 Q-12.95 16.65 -12.65 15.65 -12.35 14.55 -11.0 14.6" fill="#0004ff" fill-rule="evenodd" stroke="none"/>
      <path d="M-7.4 16.55 Q-7.15 17.4 -7.95 18.35 -8.7 19.35 -9.65 19.4 L-10.1 19.35 -8.4 15.45 Q-7.6 15.95 -7.4 16.55" fill="#ff0000" fill-rule="evenodd" stroke="none"/>
      <path d="M-12.65 16.95 Q-13.35 14.55 -11.0 14.6 -7.85 14.75 -7.4 16.55 -7.15 17.4 -7.95 18.35 -8.7 19.35 -9.65 19.4 -11.9 19.4 -12.65 16.95" fill="#ffffff" fill-rule="evenodd" stroke="none"/>
      <path d="M-11.0 14.6 L-10.35 14.7 -12.25 17.85 Q-12.95 16.65 -12.65 15.65 -12.35 14.55 -11.0 14.6" fill="#0004ff" fill-rule="evenodd" stroke="none"/>
      <path d="M-7.4 16.55 Q-7.15 17.4 -7.95 18.35 -8.7 19.35 -9.65 19.4 L-10.1 19.35 -8.4 15.45 Q-7.6 15.95 -7.4 16.55" fill="#ff0000" fill-rule="evenodd" stroke="none"/>
    </g>
  </defs>
</svg>
